source/images/logo/vuejs.svg

<svg fill="none" height="65" viewBox="0 0 75 65" width="75" xmlns="http://www.w3.org/2000/svg"><path d="m45.7413.710563-8.5293 14.773337-8.5294-14.773337h-28.404036l36.933436 63.970137 36.9334-63.970137z" fill="#4dba87"/><path d="m45.7368.680516-8.5294 14.773384-8.5294-14.773384h-13.6306l22.16 38.381984 22.16-38.381984z" fill="#435466"/></svg>

<svg width="75" height="65" viewBox="0 0 75 65" fill="none" xmlns="http://www.w3.org/2000/svg">
<path d="M45.7413 0.710563L37.212 15.4839L28.6826 0.710563H0.278564L37.212 64.6807L74.1454 0.710563H45.7413Z" fill="#4DBA87"/>
<path d="M45.7368 0.680516L37.2074 15.4539L28.678 0.680516H15.0474L37.2074 39.0625L59.3674 0.680516H45.7368Z" fill="#435466"/>
</svg>
